X:890
T:Dingle Regatta
S:Sessions/Records
Z:Nigel Gatherer
M:12/8
L:1/8
K:G
d^cd e2d BAB =c2B | A3 AGA B2A G3 | d^cd e2d BAB =c2B | AGA B2A G3 G3 :|
d3 def g3 gfg | a3 aga b2a g2e | d3 def g3 gfg | a2g f2e def g3 :|
gbg dgd BdB G2G | FGA DEF G2B d3 | gbg dgd BdB G2G | FGA DEF G3 G3 :|
